icons/inkscape.svg

<!--
  - The MIT License (MIT)
  -
  - Copyright (c) 2015-2024 Elior "Mallowigi" Boukhobza
  -
  - Permission is hereby granted, free of charge, to any person obtaining a copy
  - of this software and associated documentation files (the "Software"), to deal
  - in the Software without restriction, including without limitation the rights
  - to use, copy, modify, merge, publish, distribute, sublicense, and/or sell
  - copies of the Software, and to permit persons to whom the Software is
  - furnished to do so, subject to the following conditions:
  -
  - The above copyright notice and this permission notice shall be included in all
  - copies or substantial portions of the Software.
  -
  - THE SOFTWARE IS PROVIDED "AS IS", WITHOUT WARRANTY OF ANY KIND, EXPRESS OR
  - IMPLIED, INCLUDING BUT NOT LIMITED TO THE WARRANTIES OF MERCHANTABILITY,
  - FITNESS FOR A PARTICULAR PURPOSE AND NONINFRINGEMENT. IN NO EVENT SHALL THE
  - AUTHORS OR COPYRIGHT HOLDERS BE LIABLE FOR ANY CLAIM, DAMAGES OR OTHER
  - LIABILITY, WHETHER IN AN ACTION OF CONTRACT, TORT OR OTHERWISE, ARISING FROM,
  - OUT OF OR IN CONNECTION WITH THE SOFTWARE OR THE USE OR OTHER DEALINGS IN THE
  - SOFTWARE.
  -
  -->

<svg version="1.1" xmlns="http://www.w3.org/2000/svg" viewBox="0 0 512 512" width="16px" height="16px">
  <path fill="#424242" data-iconColor="Inkscape"
        d="M426.9378967,392.6523438c0,9.594696,74.496582,15.0774231,70.3832703-2.2844543C491.3796997,361.1268616,435.1645508,363.4113159,426.9378967,392.6523438z M109.2992477,443.3672485c16.9102631,14.6204834,42.504158-3.1982422,50.7307663-23.7583313C143.5767975,398.1350403,82.7912674,420.9796143,109.2992477,443.3672485z M417.7972412,412.7555542c-21.0235596,19.1894226,3.6562805,39.2926331,24.2228088,26.0427856C447.5044556,435.1431885,441.5630188,417.3244629,417.7972412,412.7555542z M358.8397827,344.2217712c44.7893677-31.5253296,209.3216553-47.5165405,133.4539795-123.3604584L297.1402283,21.1998558c-24.2227783-22.8445072-63.9847107-22.8445072-86.3794098,0L22.4628315,214.0080109c-71.297348,71.2749481,46.1603851,65.3352814,88.6645966,92.2919464c19.65242,12.7929688-63.0708199,29.2409973-46.1603851,46.145813c16.453064,16.9051208,99.1763,32.4395142,115.6296387,48.8875427c16.453064,16.9048462-33.3634949,34.7235718-16.9104309,51.6286926c15.9962463,16.9048462,54.3871918,0.9136353,61.2427368,39.2925415c5.0271606,28.3273621,70.3831482,14.1636658,99.6333923-10.0515442c18.2814331-15.5343933-31.5354004-15.5343933-15.0820618-32.4392395c41.1329346-41.5771484,77.6957703-18.7326355,92.7778625-57.1115417C410.4846802,372.0923157,340.101532,357.4718323,358.8397827,344.2217712z M196.7037811,331.3137512c-12.0901184-5.4425354-32.2217407-0.9250793-42.4224854-8.414917c-6.4714966-4.7514343,3.9139709-6.0765381,21.5029144-8.368988c25.4876862-3.3219604,64.8292084,9.6344604,71.5193176,13.0787659c6.6898193,3.4442749,7.5284271,5.5536804,7.5284271,5.5536804C261.3966675,358.9346313,225.7233582,344.3771057,196.7037811,331.3137512z M325.9333801,105.7248688l-7.3126526,44.3182983l-30.6212158-16.4480133l-49.8165588,31.5253296l-16.4533386-66.2491913l-26.5079498,57.5683594l-66.2698975-0.4568024c-12.7968903,0-10.9688034-13.250061,2.2851715-26.4998474c26.0508728-28.7841797,76.781601-77.6714325,92.7778625-94.5762711c16.4533386-16.905117,45.2464905-16.4483051,61.6995239,0l74.4967346,75.8439102c6.8555298,6.8532944,6.8555298,21.016983,2.7422485,25.1288452L325.9333801,105.7248688z"/>
</svg>

<svg xmlns="http://www.w3.org/2000/svg" viewBox="0 0 512 512"><path fill="#424242" d="M426.938 392.652c0 9.595 74.496 15.078 70.383-2.284-5.941-29.241-62.156-26.957-70.383 2.284m-317.639 50.715c16.91 14.62 42.504-3.198 50.731-23.758-16.453-21.474-77.239 1.37-50.73 23.758m308.498-30.611c-21.023 19.189 3.657 39.292 24.223 26.042 5.484-3.655-.457-21.474-24.223-26.042m-58.957-68.534c44.79-31.526 209.321-47.517 133.454-123.36L297.14 21.2c-24.223-22.845-63.984-22.845-86.38 0L22.464 214.008c-71.298 71.275 46.16 65.335 88.664 92.292 19.653 12.793-63.07 29.241-46.16 46.146 16.453 16.905 99.176 32.44 115.63 48.887 16.453 16.905-33.364 34.724-16.91 51.629 15.995 16.905 54.386.914 61.242 39.293 5.027 28.327 70.383 14.163 99.633-10.052 18.282-15.534-31.535-15.534-15.082-32.44 41.133-41.576 77.696-18.732 92.778-57.11 8.227-20.56-62.156-35.181-43.418-48.431m-162.136-12.908c-12.09-5.443-32.222-.925-42.423-8.415-6.471-4.752 3.914-6.077 21.503-8.37 25.488-3.321 64.83 9.635 71.52 13.08 6.69 3.444 7.528 5.553 7.528 5.553 6.565 25.773-29.109 11.215-58.128-1.848m129.23-225.59-7.313 44.32L288 133.594l-49.817 31.525L221.73 98.87l-26.508 57.569-66.27-.457c-12.797 0-10.969-13.25 2.285-26.5 26.05-28.784 76.782-77.671 92.778-94.576 16.453-16.905 45.246-16.449 61.7 0l74.496 75.844c6.856 6.853 6.856 21.017 2.742 25.128z" data-iconColor="Inkscape"/></svg>
